svg/24/logo-voicemod.svg

<svg width="24" height="24" viewBox="0 0 24 24" fill="currentColor" xmlns="http://www.w3.org/2000/svg"><path fill-rule="evenodd" clip-rule="evenodd" d="M16.5886 8.02285L23.9998 13.3249H21.2572L18.4065 11.2856C18.3257 11.2276 18.2194 11.2199 18.1311 11.2656C18.0428 11.3113 17.9874 11.4028 17.9875 11.5026V15.6243C17.9876 15.6499 17.9796 15.6748 17.9648 15.6956C17.946 15.7222 17.9175 15.7402 17.8854 15.7456C17.8534 15.751 17.8206 15.7434 17.7942 15.7245L11.5891 11.2856C11.5084 11.2276 11.402 11.2199 11.3138 11.2656C11.2254 11.3113 11.17 11.4028 11.1702 11.5026L11.1679 14.1487H9.57882V8.12299C9.57903 8.07718 9.60454 8.03528 9.64503 8.01424C9.68553 7.99321 9.73433 7.99653 9.77162 8.02285L15.9764 12.4617C16.0573 12.5197 16.1636 12.5275 16.2519 12.4817C16.3402 12.436 16.3956 12.3445 16.3954 12.2448V8.12299C16.3954 8.05506 16.4502 8 16.5178 8C16.5432 7.99998 16.568 8.00797 16.5886 8.02285ZM6.77543 11.6335V8H8.36833V15.6244C8.36828 15.6734 8.3392 15.7178 8.29426 15.7372C8.24933 15.7567 8.19722 15.7475 8.16158 15.7139L0 8H2.2749L6.32748 11.8272C6.40454 11.9003 6.51765 11.9203 6.61506 11.8782C6.71247 11.8361 6.77554 11.7399 6.77543 11.6335Z"/></svg>

<svg xmlns="http://www.w3.org/2000/svg" width="24" height="24" fill="currentColor" viewBox="0 0 24 24">
  <path fill-rule="evenodd" d="m16.589 8.023 7.41 5.302h-2.742l-2.85-2.04a.264.264 0 0 0-.42.218v4.121a.122.122 0 0 1-.193.1l-6.205-4.438a.264.264 0 0 0-.419.217l-.002 2.646h-1.59V8.123a.126.126 0 0 1 .067-.109.122.122 0 0 1 .127.009l6.204 4.439a.264.264 0 0 0 .42-.217V8.123a.123.123 0 0 1 .193-.1Zm-9.814 3.61V8h1.593v7.624a.123.123 0 0 1-.206.09L0 8h2.275l4.052 3.827a.265.265 0 0 0 .448-.194Z" clip-rule="evenodd"/>
</svg>
